assets/icons/bookmark.svg

<svg width="24" height="24" viewBox="0 0 24 24" fill="none" xmlns="http://www.w3.org/2000/svg">
<path d="M19.875 2H4.125C3.50625 2 3 2.44939 3 3.00481V22.4648C3 23.0202 3.36563 23.1616 3.82125 22.7728L11.5444 16.1986C11.7244 16.0471 12.0225 16.0471 12.2025 16.1936L20.1731 22.7879C20.6287 23.1666 21 23.0202 21 22.4648V3.00481C21 2.44939 20.4994 2 19.875 2ZM19.3125 20.0209L13.3444 15.0827C12.9281 14.7394 12.405 14.5677 11.8763 14.5677C11.3363 14.5677 10.8019 14.7444 10.3856 15.0979L4.6875 19.9502V3.51479H19.3125V20.0209Z" fill="black" stroke="black" stroke-width="0.7"/>
</svg>

<svg xmlns="http://www.w3.org/2000/svg" width="24" height="24" fill="none"><path fill="#000" stroke="#000" stroke-width=".7" d="M19.875 2H4.125C3.506 2 3 2.45 3 3.005v19.46c0 .555.366.697.821.308l7.723-6.574a.54.54 0 0 1 .659-.005l7.97 6.594c.456.379.827.232.827-.323V3.005C21 2.449 20.5 2 19.875 2Zm-.563 18.02-5.968-4.937a2.302 2.302 0 0 0-1.468-.515c-.54 0-1.074.176-1.49.53L4.688 19.95V3.515h14.625V20.02Z"/></svg>
